Origami/32x32/apps/singular.svg

<svg width="32" height="32" version="1" xmlns="http://www.w3.org/2000/svg">
 <path d="m27 29.6v-25.2c0-0.7756-0.641125-1.4-1.4375-1.4h-20.125c-0.796375 0-1.4375 0.6244-1.4375 1.4v25.2c0 0.7756 0.641125 1.4 1.4375 1.4h20.125c0.796375 0 1.4375-0.6244 1.4375-1.4z" style="opacity:.2"/>
 <path d="m27 28.6v-25.2c0-0.7756-0.641125-1.4-1.4375-1.4h-20.125c-0.796375 0-1.4375 0.6244-1.4375 1.4v25.2c0 0.7756 0.641125 1.4 1.4375 1.4h20.125c0.796375 0 1.4375-0.6244 1.4375-1.4z" style="fill:#00679a"/>
 <path d="m20 5.9857575c0 2.1-6.6875 14-11 14-2.15625 0-3-1.6-3-3s0.84375-3 3-3c4.340123-0.01506 11 11.9 11 14" style="fill:none;opacity:.2;stroke-linecap:round;stroke-linejoin:round;stroke-width:2;stroke:#000000"/>
 <path d="m20 5c0 2.1-6.6875 14-11 14-2.15625 0-3-1.6-3-3s0.84375-3 3-3c4.340123-0.01506 11 11.9 11 14" style="fill:none;stroke-linecap:round;stroke-linejoin:round;stroke-width:2;stroke:#ffffff"/>
 <path d="m22.999974 7.9857575c0 2.0262875-5 9.0000005-5 9.0000005s5.019335 7.163105 5 9" style="fill:none;opacity:.2;stroke-linecap:round;stroke-linejoin:round;stroke-width:2;stroke:#000000"/>
 <path d="m22.999974 7c0 2.0262872-5 9-5 9s5.019335 7.163105 5 9" style="fill:none;stroke-linecap:round;stroke-linejoin:round;stroke-width:2;stroke:#ffffff"/>
 <path d="m25 11.987773-3 5 3 5" style="fill:none;opacity:.2;stroke-linecap:round;stroke-linejoin:round;stroke-width:2;stroke:#000000"/>
 <path d="m25 11-3 5 3 5" style="fill:none;stroke-linecap:round;stroke-linejoin:round;stroke-width:2;stroke:#ffffff"/>
 <path d="m5.4375 2c-0.796375 0-1.4375 0.6247906-1.4375 1.4003906v1c0-0.7756 0.641125-1.4003906 1.4375-1.4003906h20.125c0.796375 0 1.4375 0.6247906 1.4375 1.4003906v-1c0-0.7756-0.641125-1.4003906-1.4375-1.4003906h-20.125z" style="fill:#ffffff;opacity:.2"/>
</svg>

<svg xmlns="http://www.w3.org/2000/svg" width="32" height="32" version="1">
 <path style="opacity:0.2" d="M 27,29.6 27,4.4 C 27,3.6244 26.358875,3 25.5625,3 L 5.4375,3 C 4.641125,3 4,3.6244 4,4.4 L 4,29.6 C 4,30.3756 4.641125,31 5.4375,31 l 20.125,0 C 26.358875,31 27,30.3756 27,29.6 Z"/>
 <path d="M 27,28.6 27,3.4 C 27,2.6244 26.358875,2 25.5625,2 L 5.4375,2 C 4.641125,2 4,2.6244 4,3.4 L 4,28.6 C 4,29.3756 4.641125,30 5.4375,30 l 20.125,0 C 26.358875,30 27,29.3756 27,28.6 Z" style="fill:#00679a"/>
 <path d="m 20,5.9857575 c 0,2.1 -6.6875,14.0000005 -11,14.0000005 -2.15625,0 -3,-1.6 -3,-3 0,-1.4 0.84375,-3 3,-3 4.340123,-0.01506 11,11.9 11,14" style="opacity:0.2;fill:none;stroke:#000000;stroke-width:2;stroke-linecap:round;stroke-linejoin:round"/>
 <path style="fill:none;stroke:#ffffff;stroke-width:2;stroke-linecap:round;stroke-linejoin:round" d="M 20,5 C 20,7.1 13.3125,19 9,19 6.84375,19 6,17.4 6,16 6,14.6 6.84375,13 9,13 13.340123,12.98494 20,24.9 20,27"/>
 <path d="m 22.999974,7.9857575 c 0,2.0262875 -5,9.0000005 -5,9.0000005 0,0 5.019335,7.163105 5,9" style="opacity:0.2;fill:none;stroke:#000000;stroke-width:2;stroke-linecap:round;stroke-linejoin:round"/>
 <path style="fill:none;stroke:#ffffff;stroke-width:2;stroke-linecap:round;stroke-linejoin:round" d="m 22.999974,7 c 0,2.0262872 -5,9 -5,9 0,0 5.019335,7.163105 5,9"/>
 <path d="m 25,11.987773 -3,5 3,5" style="opacity:0.2;fill:none;stroke:#000000;stroke-width:2;stroke-linecap:round;stroke-linejoin:round"/>
 <path style="fill:none;stroke:#ffffff;stroke-width:2;stroke-linecap:round;stroke-linejoin:round" d="m 25,11 -3,5 3,5"/>
 <path style="fill:#ffffff;opacity:0.2" d="M 5.4375 2 C 4.641125 2 4 2.6247906 4 3.4003906 L 4 4.4003906 C 4 3.6247906 4.641125 3 5.4375 3 L 25.5625 3 C 26.358875 3 27 3.6247906 27 4.4003906 L 27 3.4003906 C 27 2.6247906 26.358875 2 25.5625 2 L 5.4375 2 z"/>
</svg>
